!!!SOCIAL_FUNCTION:	songs of principal social dances with corn dance
!!!PDT:	1956
!!!OTL: No_70_Alligator_Dance_Song_(f).krn
!!!LANG: Non-Tone
!!!LING_GROUP: Muskogean
!!!REG: Florida
**kern
*staff1
=1-
=
*clefF4
*k[f#]
*M3/4
8B\L
8B\J
4B\
8.B;\L
16c\Jk
=2||
*M2/4
8.B\L
16A\Jk
4G\
=3||
*M3/4
8B\L
8B\J
4B\
8.A;\L
16G\Jk
=4
8.G\L
16E\Jk
4E\
8E\
8r
=5
8E\L
8E\J
4E\
8.E\L
16G\Jk
=6||
*M2/4
8.G\L
16E\Jk
4E\
=7||
*M3/4
8B\L
8B\J
4B\
8.A;\L
16G\Jk
=8
8.G\L
16E\Jk
4E\
8E\
8r
=9
8E\L
8E\J
4E\
8.E\L
16G\Jk
=10||
*M2/4
8.G\L
16E\Jk
4E\
=11:|!
4B\
4r
=12
2B\
*-
